X: 6893
T: Chasing Time
R: reel
M: 4/4
K: Gmajor
|:G3 B g2 eB|decB ceee|G3 B g2 eB|deBA BAAE|
G3 B g2 eB|decB ceef|ggbg abed|cedB AGED:|
GdBA B2 BA|GdBA Beee|GdBA B2 BA|AEEB cBBA|
GdBA B2 BA|GdBA ceef|ggbg abed|cedB AGED:|

